!!!OTL: Die Brombeeren (Band 1), S. 189,
!!!id: P0839
**kern
*clefG2
*k[f#]
*G:
{4d
=1
4g
4g
8g
8g
8g
8g
=2
4e
4e
4d}
=3
{4d
=4
4e
8e
8e
4f#
4d
=5
2g}
4r
=6
{8g
8a
=7
4.b
8a
4b
4dd
=8
4cc
4b
4a}
4r
=9
{8.a
16a
8a
8a
4a
8dd
8cc
=10
4b
4a
4g}
=11
{8g
8a
=12
4b
4b
4a
4a
=13
4.g
8b
4dd}
=14
{8dd
8cc
=15
4b
4g
4b
4a
=16
2g}
4r
==
*-
!!!minrhy: 16
!!!meters: 4/4 ]  ZZ[6
!!!cut1: Die Brombeeren (Band 1), S. 189,
!!!cut2: (Es wollt ein M&auml;dchen fr&uuml;haufstehn)
!!!reg: Lothringen
!!!trd: PINCK, Louis: Verklingende Weisen, Bd 1, Metz 1928
!!!rhy1: X__  X__X__X_X_X_X_  X__X__X__   (x2)
!!!rhy2: X__  X__X_X_X__X__  X___0_
!!!key: P0839  16  G 4/4 ]  ZZ[6
!!!mod: HEPTATONIK IONISCH]  AMBITUS[8
!!!kad: -512151
!!!akz: 11-6-5_-6-71_3342_2231_3215_331_
!!!fot: 'a__b__c__cs'd__as'
!!!for: 'a__b__c__d__e__ew_
!!!fok: '^__/__^a_^d_~a_\__
!! PHRAS[VORWIEGEND AUFTAKTIG]
!!!fkt: Jagen, Beischlaf
!! LOTH VKL
!! PR[23] 2K[6] 2G[9] 3K[6] 3G[9] 4A[3] 4Ü[0] 5A[0] 6K[0] 6G[3]
!! 7K[0] 7G[0] 8A[0] MEHR[0] SI[35] ABS[69] SR[14] SP[20]
!! ST[16] 2k[6] 2g[29] 3k[0] 3g[0] 4d[6] 4ü[0] 5d[0] 6k[1] 6g[0]
!! 7k[0] 7g[0] 8d[0] mehr[0] si[42] dm[-7] sr[35] sp[7]
!! 1F[84] 2F[11] 3F[5] 4F[0] LF[0] 2P[0] 3P[0] 4P[0] TRI[0] DF[3] AB[76]
!! TF[3] U3K[0] U3[3] U4[6] U4Ü[0] U5[14] U6K[0] U6[20] U7K[0] U7[14]
!! N1[17] N2K[0] N2[11] N3K[0] N3[11] N4[0] N4Ü[0] N5[0] N6K[0] N6[0]
!!!n7k: 0] N7[0] O1[0] O2K[0] O2[0] O3K[0] O3[0] HÖ[0
!!!RNB: symbol: &auml;      = a umlaut  (UTF-8: Å„)
!!!RNB: symbol: &uuml;  = u umlaut (UTF-8: Ã¼)
